svgs/sharp-duotone-solid/notdef.svg

<svg xmlns="http://www.w3.org/2000/svg" viewBox="0 0 384 512"><!--! Font Awesome Pro 7.1.0 by @fontawesome - https://fontawesome.com License - https://fontawesome.com/license (Commercial License) Copyright 2025 Fonticons, Inc. --><path opacity=".4" fill="currentColor" d="M64 64l38.5 0 89.5 134.3 89.5-134.3 38.5 0 0 57.7-89.5 134.3 89.5 134.3 0 57.7-38.5 0-89.5-134.3-89.5 134.3-38.5 0 0-57.7 89.5-134.3-89.5-134.3c0-19.2 0-38.5 0-57.7z"/><path fill="currentColor" d="M0 0L384 0 384 512 0 512 0 0zM64 64l0 384 256 0 0-384-256 0z"/></svg>

<svg xmlns="http://www.w3.org/2000/svg" viewBox="0 0 384 512"><!--! Font Awesome Pro 6.7.2 by @fontawesome - https://fontawesome.com License - https://fontawesome.com/license (Commercial License) Copyright 2024 Fonticons, Inc. --><defs><style>.fa-secondary{opacity:.4}</style></defs><path class="fa-secondary" d="M64 64l38.5 0L192 198.3 281.5 64 320 64l0 57.7L230.5 256 320 390.3l0 57.7-38.5 0L192 313.7 102.5 448 64 448l0-57.7L153.5 256 64 121.7c0-19.2 0-38.5 0-57.7z"/><path class="fa-primary" d="M0 0L32 0 352 0l32 0 0 32 0 448 0 32-32 0L32 512 0 512l0-32L0 32 0 0zM64 64l0 384 256 0 0-384L64 64z"/></svg>
